X: 1937
T: Transit of Venus
C:Bride (pub 1775)
B: australian traditional tunes wiki
M:2/4
L:1/8
R: Reel
Q: 1/4=100
K:D
V:1 
"D"f2a/g/f/e/|f2a/g/f/e/|"G"dA Bc|dA Bc|"D"f2a/g/f/e/|"Bm7"f2a/g/f/e/|"G"dA Bc|"D"d2D2:|
|:"D"A2G/F/E/D/|A2G/F/E/D/|"G"Bc de|"A"c2A2|"Bm7"B2g/f/e/d/|"A"c2a/g/f/e/|"G"dA Bc|"D"d2D2:|
% abcbook-tune_id 6342d5bebfaa575c8b681fbd


% abcbook-boost 0
% abcbook-tablature 
% abcbook-transpose 
% abcbook-lastupdated 1665324488944
% abcbook-soundfonts 
% abcbook-repeats 1
% NFF Book 2020
% Bush Traditions recording played by Roland Clarke

